X:72
%%pagewidth 7.5in
%%score 1 2
T:The blind beggars daughter of Bethnal Green
M:C
L:1/8
K:Bb
V:1 clef-treble
V:2 clef-bass octave=-1
V:1
D2|[DG]2[EG]A[DGB]2[DA]G|^F2GA[B,DG]2[EG]2&[CD]4x4|
w:It was a blind beg gar had long lost his sight, He
V:2
^F2&D>C|[B,G]2[CG]2[F,G]2B,2|D4G2[EB]2|
V:1
=F>G[C(F]E) (DF)[DB]c&C2x6|d2c>B[Fc]2[_EF]2&=E4x4|[Dd]2[FB]d[Fc]2Ac|
w:had a fair* daught-*er of beau-ty most bright, And ma-ny a gal-lant brave
V:2
[FB]2[FA]2B2A2|[GB]4[FA]2[FA]2|[B,B]2[DB]2[FA]4|
V:1
[DB]2A>G^F2D2&x2D2x4|E2FGD2[B,DG]A|[DGB]2A>G[B,G]2&x2[C^F]2x2||
w:sui tor had she, For none was so come-ly as pret ty Bes-sie.
V:2
G2B2d2D2|[CG]4[B,G]2G,2|D,4G,2||

